src/svg/watch.svg

<svg version="1.2" baseProfile="tiny" xmlns="http://www.w3.org/2000/svg" width="24" height="24" viewBox="0 0 24 24"><path d="M12 13h2c.55 0 1-.45 1-1s-.45-1-1-1h-1v-1c0-.55-.45-1-1-1s-1 .45-1 1v2c0 .55.45 1 1 1zM17 7.105v-2.105c0-1.654-1.346-3-3-3h-4c-1.654 0-3 1.346-3 3v2.105c-1.236 1.263-2 2.989-2 4.895s.764 3.632 2 4.895v2.105c0 1.654 1.346 3 3 3h4c1.654 0 3-1.346 3-3v-2.105c1.236-1.262 2-2.988 2-4.895s-.764-3.632-2-4.895zm-8-2.105c0-.551.449-1 1-1h4c.551 0 1 .449 1 1v1.809c-.883-.512-1.906-.809-3-.809s-2.117.297-3 .809v-1.809zm6 14c0 .551-.449 1-1 1h-4c-.551 0-1-.449-1-1v-1.811c.883.513 1.906.811 3 .811s2.117-.298 3-.811v1.811zm-3-2c-2.757 0-5-2.243-5-5s2.243-5 5-5 5 2.243 5 5-2.243 5-5 5z"/></svg>

<?xml version="1.0" encoding="iso-8859-1"?>
<!-- Generator: Adobe Illustrator 16.2.1, SVG Export Plug-In . SVG Version: 6.00 Build 0)  -->
<svg version="1.2" baseProfile="tiny" id="Layer_1" xmlns="http://www.w3.org/2000/svg" xmlns:xlink="http://www.w3.org/1999/xlink"
	 x="0px" y="0px" width="24px" height="24px" viewBox="0 0 24 24" xml:space="preserve">
<path d="M12,13h2c0.55,0,1-0.45,1-1s-0.45-1-1-1h-1v-1c0-0.55-0.45-1-1-1s-1,0.45-1,1v2C11,12.55,11.45,13,12,13z"/>
<path d="M17,7.105V5c0-1.654-1.346-3-3-3h-4C8.346,2,7,3.346,7,5v2.105C5.764,8.368,5,10.094,5,12s0.764,3.632,2,4.895V19
	c0,1.654,1.346,3,3,3h4c1.654,0,3-1.346,3-3v-2.105c1.236-1.262,2-2.988,2-4.895S18.236,8.368,17,7.105z M9,5c0-0.551,0.449-1,1-1h4
	c0.551,0,1,0.449,1,1v1.809C14.117,6.297,13.094,6,12,6S9.883,6.297,9,6.809V5z M15,19c0,0.551-0.449,1-1,1h-4c-0.551,0-1-0.449-1-1
	v-1.811C9.883,17.702,10.906,18,12,18s2.117-0.298,3-0.811V19z M12,17c-2.757,0-5-2.243-5-5s2.243-5,5-5s5,2.243,5,5
	S14.757,17,12,17z"/>
</svg>
